common/src/main/resources/files/plugins/datagrip/sunFileType.svg

<!--
  - The MIT License (MIT)
  -
  - Copyright (c) 2015-2024 Elior "Mallowigi" Boukhobza
  -
  - Permission is hereby granted, free of charge, to any person obtaining a copy
  - of this software and associated documentation files (the "Software"), to deal
  - in the Software without restriction, including without limitation the rights
  - to use, copy, modify, merge, publish, distribute, sublicense, and/or sell
  - copies of the Software, and to permit persons to whom the Software is
  - furnished to do so, subject to the following conditions:
  -
  - The above copyright notice and this permission notice shall be included in all
  - copies or substantial portions of the Software.
  -
  - THE SOFTWARE IS PROVIDED "AS IS", WITHOUT WARRANTY OF ANY KIND, EXPRESS OR
  - IMPLIED, INCLUDING BUT NOT LIMITED TO THE WARRANTIES OF MERCHANTABILITY,
  - FITNESS FOR A PARTICULAR PURPOSE AND NONINFRINGEMENT. IN NO EVENT SHALL THE
  - AUTHORS OR COPYRIGHT HOLDERS BE LIABLE FOR ANY CLAIM, DAMAGES OR OTHER
  - LIABILITY, WHETHER IN AN ACTION OF CONTRACT, TORT OR OTHERWISE, ARISING FROM,
  - OUT OF OR IN CONNECTION WITH THE SOFTWARE OR THE USE OR OTHER DEALINGS IN THE
  - SOFTWARE.
  -->
<svg data-big="true" width="16px" height="16px" viewBox="0 0 16 16" fill="#389FD6" xmlns="http://www.w3.org/2000/svg">
  <path
    d="M7.16879 1.44483C6.70415 1.91027 6.70415 2.66283 7.16879 3.12814L9.92455 5.88138L10.6613 5.14704L7.88728 2.37161L8.09544 2.16187L10.8709 4.93744L11.6085 4.20059L8.85276 1.44483C8.38745 0.979532 7.63383 0.981645 7.16879 1.44483Z"
  />
  <path
    d="M8.88168 5.27264C9.34698 5.73795 9.34698 6.48906 8.88168 6.95661C8.41677 7.4198 7.66302 7.4198 7.19811 6.95661L4.44434 4.20085L5.18092 3.46215L7.95543 6.23746L8.16464 6.0297L5.3892 3.25585L6.12579 2.51742L8.88168 5.27264Z"
  />
  <path
    d="M10.7421 8.84555C10.2789 9.30874 9.52552 9.30874 9.06022 8.84555C8.59597 8.38065 8.59597 7.62755 9.06022 7.16265L11.816 4.40689L12.553 5.14361L9.77845 7.91891L9.98673 8.12719L12.7607 5.35321L13.4993 6.08966L10.7421 8.84555Z"
  />
  <path
    d="M1.48103 8.84555C1.94647 9.31231 2.69903 9.31231 3.16447 8.84555L5.92009 6.09178L5.18086 5.35308L2.40701 8.12851L2.19952 7.91891L4.97271 5.14493L4.23613 4.40834L1.48103 7.16423C1.0156 7.62755 1.0156 8.38065 1.48103 8.84555Z"
  />
  <path
    d="M6.99217 7.13478C6.52713 6.66948 5.77536 6.66948 5.30913 7.13478L2.55298 9.88934L3.29207 10.6274L6.06526 7.85182L6.27566 8.06155L3.49943 10.8355L4.23628 11.5724L6.99217 8.81676C7.45747 8.35132 7.45602 7.59823 6.99217 7.13478Z"
  />
  <path
    d="M8.88168 12.8525C9.34698 13.316 9.34698 14.069 8.88168 14.5317C8.41677 14.9971 7.66302 14.9971 7.19811 14.5317L4.44434 11.7767L5.18092 11.0416L7.95543 13.8156L8.16464 13.6073L5.3892 10.8321L6.12579 10.0954L8.88168 12.8525Z"
  />
  <path
    d="M7.16879 9.02438C6.70415 9.48625 6.70415 10.2411 7.16879 10.7065L9.92455 13.4603L10.6613 12.7233L7.88728 9.94904L8.09544 9.74102L10.8709 12.5149L11.6085 11.778L8.85276 9.02438C8.38745 8.55697 7.63383 8.55697 7.16879 9.02438Z"
  />
  <path
    d="M14.5704 7.13332C14.107 6.66802 13.3537 6.66802 12.8888 7.13332L10.1329 9.88921L10.871 10.6237L13.6453 7.85181L13.8532 8.05798L11.0778 10.8333L11.8158 11.5701L14.5704 8.81676C15.037 8.35146 15.0349 7.59625 14.5704 7.13332Z"
  />
</svg>

<svg xmlns="http://www.w3.org/2000/svg" width="16" height="16" fill="#389FD6" data-big="true"><path d="M7.169 1.445a1.19 1.19 0 0 0 0 1.683l2.756 2.753.736-.734-2.774-2.775.208-.21 2.776 2.775.737-.736-2.755-2.756a1.19 1.19 0 0 0-1.684 0M8.882 5.273a1.19 1.19 0 1 1-1.684 1.684L4.444 4.2l.737-.739 2.774 2.775.21-.207-2.776-2.774.737-.739zM10.742 8.846A1.19 1.19 0 0 1 9.06 7.163l2.756-2.756.737.737-2.775 2.775.209.208 2.774-2.774.738.737zM1.481 8.846a1.187 1.187 0 0 0 1.683 0L5.92 6.092l-.74-.739L2.408 8.13l-.207-.21 2.773-2.774-.737-.737-2.755 2.756a1.187 1.187 0 0 0 0 1.682M6.992 7.135a1.19 1.19 0 0 0-1.683 0L2.553 9.889l.74.738 2.772-2.775.21.21L3.5 10.836l.737.736 2.756-2.755a1.19 1.19 0 0 0 0-1.682M8.882 12.853a1.19 1.19 0 0 1-1.684 1.68l-2.754-2.756.737-.735 2.774 2.774.21-.209-2.776-2.775.737-.737zM7.169 9.024a1.19 1.19 0 0 0 0 1.683l2.756 2.753.736-.737L7.887 9.95l.208-.208 2.776 2.774.737-.737-2.755-2.754a1.186 1.186 0 0 0-1.684 0M14.57 7.133a1.187 1.187 0 0 0-1.681 0L10.133 9.89l.738.735 2.774-2.772.208.206-2.775 2.775.738.737 2.754-2.753a1.19 1.19 0 0 0 0-1.684"/></svg>
